icons/rss3-alt.svg

<svg xmlns="http://www.w3.org/2000/svg" fill="none" viewBox="0 0 1024 1024">
  <path fill="#1477FB" d="M991.714 0H32.286C14.529 0 0 13.852 0 31.967v960.066C0 1009.61 14.529 1024 32.286 1024h959.428c17.756 0 32.286-14.39 32.286-31.967V31.967C1024 14.385 1009.47 0 991.714 0M887.861 856.708c-3.766 5.86-10.224 9.59-17.219 9.59H718.899c-7.534 0-14.529-4.263-17.758-11.189l-86.095-171.554c-5.919-11.189-17.758-18.648-30.672-18.648H322.321c-5.381 0-9.686 4.263-9.686 9.59v172.621c0 11.188-9.148 19.712-19.91 19.712H172.729c-11.3 0-19.909-9.057-19.909-19.712V526.385c0-11.188 9.147-19.713 19.909-19.713h403.574c14.528 0 26.905-11.721 26.905-26.639V343.642c0-14.385-11.839-26.639-26.905-26.639H172.729c-11.3 0-19.909-9.057-19.909-19.713V178.481c0-11.189 9.147-19.713 19.909-19.713h422.407c11.3 0 19.91 9.057 19.91 19.713v94.302c0 14.385 11.838 26.638 26.905 26.638h101.162c11.3 0 19.91 9.058 19.91 19.713v185.407c0 11.188-9.148 19.713-19.91 19.713H641.951c-14.529 0-26.905 11.721-26.905 26.639v68.195c0 18.648 15.066 33.566 33.9 33.566h133.448c7.533 0 14.529 4.262 17.757 11.188l87.71 174.218c3.229 6.394 2.691 13.32-1.076 19.18z"/>
</svg>

<svg viewBox="0 0 1024 1024" fill="none" xmlns="http://www.w3.org/2000/svg">
  <path
    d="M991.714 0H32.2859C14.5286 0 0 13.8522 0 31.9667V992.033C0 1009.61 14.5286 1024 32.2859 1024H991.714C1009.47 1024 1024 1009.61 1024 992.033V31.9667C1024 14.385 1009.47 0 991.714 0ZM887.861 856.708C884.095 862.568 877.637 866.298 870.642 866.298H718.899C711.365 866.298 704.37 862.035 701.141 855.109L615.046 683.555C609.127 672.366 597.288 664.907 584.374 664.907H322.321C316.94 664.907 312.635 669.17 312.635 674.497V847.118C312.635 858.306 303.487 866.83 292.725 866.83H172.729C161.429 866.83 152.82 857.773 152.82 847.118V526.385C152.82 515.197 161.967 506.672 172.729 506.672H576.303C590.831 506.672 603.208 494.951 603.208 480.033V343.642C603.208 329.257 591.369 317.003 576.303 317.003H172.729C161.429 317.003 152.82 307.946 152.82 297.29V178.481C152.82 167.292 161.967 158.768 172.729 158.768H595.136C606.436 158.768 615.046 167.825 615.046 178.481V272.783C615.046 287.168 626.884 299.421 641.951 299.421H743.113C754.413 299.421 763.023 308.479 763.023 319.134V504.541C763.023 515.729 753.875 524.254 743.113 524.254H641.951C627.422 524.254 615.046 535.975 615.046 550.893V619.088C615.046 637.736 630.112 652.654 648.946 652.654H782.394C789.927 652.654 796.923 656.916 800.151 663.842L887.861 838.06C891.09 844.454 890.552 851.38 886.785 857.24L887.861 856.708Z"
    fill="#1477FB" />
</svg>
